X:311
T:Leaving of Liverpool, The 
C:Joe Buchanan's Scottish Tome - Page 068.2
I:068 2
R:March
Z:Carl Allison
L:1/8
M:4/4
K:Dmaj
"A7"(DE) | "D"F3 A BAGF | "G"d3 B "D"A2 (DE) | "D"F2 A2 "G"B2 A2 | "A"E6 "A7"DE |
"D"F3 A GFED | "G" d>edB "D"A2 (DE) | "D"FAAF "A7"E3 D | D6 (cd) |
"A"e3 c A2 (cd) | "G"d3 B A2 (D>E) | "Bm"FAAA "G"BAGE | "A"(E4 E)AAG |
"D"F2 (FA) GFED |"G" d>edB A2 "D"(DE) |"D" FAAF "A7"E6 D | "D"D6 |]

